msu1/_inc/art.svg

<svg xmlns="http://www.w3.org/2000/svg"><g fill="#1e1e1e"><path d="m239.79 120.791c-32.697 0-59.217 26.505-59.217 59.202 0 32.698 26.519 59.216 59.216 59.216 12.908 0 24.845-4.125 34.576-11.138l.014-.014 1.219-.932v-.014h.014c1.958-1.564 4.435-2.494 7.138-2.494h21.847 30.806 21.846c2.705 0 5.181.93 7.139 2.494h.015v.014l1.218.932.014.014c9.73 7.013 21.669 11.138 34.576 11.138 32.698 0 59.216-26.519 59.216-59.216s-26.52-59.202-59.216-59.202h-64.363-11.912-.458v.459.602h-6.824v-.602-.459h-.458-12.041-64.364zm0 .918h64.363 11.582v.602.459h.459 7.74.459v-.459-.602h11.453 64.363c32.202 0 58.298 26.084 58.298 58.284 0 32.202-26.098 58.298-58.298 58.298-12.707 0-24.453-4.066-34.032-10.966h-.014l-1.204-.931c-2.115-1.689-4.796-2.695-7.712-2.695h-21.846-30.805-21.847c-2.917 0-5.597 1.006-7.713 2.695l-1.204.931h-.013c-9.574 6.904-21.318 10.968-34.029 10.968-32.201 0-58.298-26.096-58.298-58.298 0-32.201 26.098-58.285 58.299-58.285z" transform="matrix(.965926 -.258819 .258819 .965926 -35.683696 88.95547)"/><path d="m242.752 168.703c-17.555 0-31.794 14.241-31.794 31.795s14.24 31.795 31.794 31.795c17.555 0 31.809-14.241 31.809-31.795 0-17.555-14.254-31.795-31.809-31.795zm0 .918c17.059 0 30.892 13.818 30.892 30.877 0 17.057-13.833 30.876-30.892 30.876s-30.877-13.819-30.877-30.876c0-17.059 13.819-30.877 30.877-30.877z" transform="matrix(.965926 -.258819 .258819 .965926 -43.620822 69.662475)"/><path d="m236.443 175.799c-1.477 0-2.68 1.203-2.68 2.681v12.5c0 .244-.036.298 0 .259.035-.042 0 .013-.301.013h-12.471c-1.478 0-2.695 1.217-2.695 2.696v13.1c0 1.479 1.217 2.695 2.695 2.695l12.428.001c.218 0 .289.046.301.057s.044.04.044.23v12.484c0 1.48 1.202 2.682 2.68 2.682h12.63c1.477 0 2.68-1.202 2.68-2.682v-12.513c0-.14.023-.182.043-.2.02-.02.087-.058.273-.058h12.456c1.477 0 2.695-1.217 2.695-2.695v-13.101c0-1.478-1.218-2.696-2.695-2.696h-12.472c-.152 0-.215-.03-.244-.057-.028-.029-.057-.074-.057-.215v-12.5c0-1.478-1.203-2.681-2.68-2.681zm0 .918h12.63c.982 0 1.763.78 1.763 1.763v12.5c0 .322.101.648.33.874.229.224.561.315.889.315h12.471c.982 0 1.777.796 1.777 1.778v13.101c0 .982-.795 1.777-1.777 1.777h-12.456c-.341 0-.669.09-.904.316-.233.227-.329.552-.329.86v12.514c0 .982-.781 1.763-1.763 1.763h-12.63c-.981 0-1.763-.781-1.763-1.763v-12.486c0-.335-.091-.686-.344-.917-.252-.232-.578-.287-.918-.287h-12.428c-.982 0-1.777-.795-1.777-1.778v-13.1c0-.983.795-1.778 1.777-1.778h12.472c.393 0 .747-.052.989-.33.241-.278.228-.578.228-.86v-12.5c0-.982.782-1.763 1.763-1.762z" transform="matrix(.965926 -.258819 .258819 .965926 -43.620893 69.662302)"/><path d="m303.978 185.223c-1.074-.095-2.193.229-3.082.975l-11.997 10.063c-1.779 1.491-2.022 4.158-.532 5.935 1.491 1.778 4.158 2.006 5.936.516l12.013-10.064c1.778-1.49 2.005-4.156.516-5.935-.745-.889-1.778-1.396-2.853-1.49zm-.086.918c.839.074 1.651.462 2.237 1.161 1.172 1.398.996 3.473-.402 4.644l-12.012 10.063c-1.399 1.171-3.473.997-4.645-.4-1.172-1.399-.983-3.474.416-4.645l12.013-10.064c.7-.586 1.555-.834 2.394-.76z" transform="matrix(.965926 -.25882 .25882 .965926 -40.187181 83.651203)"/><path d="m302.931 182.97c-1.242.129-2.457.616-3.484 1.477l-12.014 10.077c-2.738 2.297-3.097 6.38-.802 9.118s6.393 3.098 9.131.802l12.013-10.062c2.738-2.296 3.097-6.379.803-9.117-1.435-1.712-3.579-2.508-5.648-2.294zm1.161.904c1.417.124 2.796.799 3.784 1.978 1.977 2.358 1.655 5.85-.702 7.826l-11.998 10.063c-2.359 1.976-5.865 1.671-7.842-.687-1.976-2.359-1.67-5.851.688-7.827l12.013-10.064c1.18-.987 2.641-1.414 4.057-1.289z" transform="matrix(.965926 -.258819 .258819 .965926 -40.185796 83.651174)"/><path d="m332.974 177.454c-1.076-.095-2.179.229-3.068.975l-12.013 10.062c-1.775 1.488-2.012 4.142-.531 5.92v.015c1.49 1.778 4.157 2.006 5.935.515l12.013-10.062c1.778-1.491 2.006-4.157.516-5.935-.745-.888-1.778-1.396-2.852-1.49zm-.086.917c.838.074 1.65.462 2.236 1.161 1.172 1.398.997 3.473-.402 4.645l-12.013 10.063c-1.397 1.171-3.472.997-4.644-.401-1.172-1.399-.983-3.474.416-4.645l12.013-10.063c.699-.586 1.555-.834 2.394-.76z" transform="matrix(.965926 -.258819 .258819 .965926 -37.188119 90.891146)"/><path d="m331.927 175.201c-1.242.129-2.457.616-3.484 1.477l-12.013 10.077c-2.738 2.296-3.099 6.38-.803 9.118 2.294 2.738 6.393 3.097 9.131.802l12.009-10.064c2.739-2.295 3.097-6.379.803-9.117-1.434-1.711-3.579-2.507-5.648-2.293zm1.161.904c1.416.124 2.796.798 3.784 1.978 1.976 2.358 1.656 5.85-.703 7.826l-11.998 10.063c-2.359 1.977-5.865 1.67-7.841-.687-1.976-2.359-1.671-5.851.688-7.827l12.013-10.063c1.179-.988 2.641-1.415 4.057-1.29z" transform="matrix(.965926 -.258819 .258819 .965926 -37.186904 90.89067)"/><path d="m397.699 106.391c-29.078 0-52.665 23.589-52.665 52.664 0 29.079 23.588 52.653 52.665 52.653 16.508 0 31.242-7.59 40.897-19.481l.043-.057.029-.057.101-.244.229-.545-.588-.087c-.329-.045-.588-.313-.588-.659 0-.379.296-.674.674-.674.316 0 .582.204.66.487l.272 1.018.559-.888.258-.43.014-.029c6.348-8.698 10.093-19.416 10.093-31.007 0-29.077-23.575-52.665-52.652-52.665v.001zm0 .917c28.582 0 51.734 23.169 51.734 51.747 0 11.364-3.669 21.856-9.877 30.391-.286-.269-.64-.459-1.061-.459-.874 0-1.591.718-1.591 1.591 0 .565.354.98.802 1.262-9.49 11.563-23.88 18.951-40.008 18.951-28.582 0-51.749-23.152-51.749-51.735 0-28.581 23.168-51.747 51.749-51.747z" transform="matrix(.965926 -.258819 .258819 .965926 -27.613841 108.349915)"/><path d="m371.914 155.544c-5.986 0-10.851 4.865-10.851 10.851s4.865 10.852 10.851 10.852c5.987 0 10.852-4.866 10.852-10.852s-4.865-10.851-10.852-10.851zm0 .916c5.491 0 9.934 4.445 9.934 9.935 0 5.491-4.443 9.934-9.934 9.934-5.49 0-9.934-4.443-9.934-9.934 0-5.49 4.444-9.935 9.934-9.935z" transform="matrix(.965926 -.258819 .258819 .965926 -30.393641 101.92831)"/><path d="m392.052 128.894c-5.987 0-10.837 4.865-10.837 10.852 0 5.986 4.851 10.851 10.837 10.851s10.852-4.865 10.852-10.851c0-5.987-4.866-10.852-10.852-10.852zm0 .917c5.49 0 9.934 4.444 9.934 9.935 0 5.49-4.444 9.933-9.934 9.933s-9.92-4.443-9.92-9.933c0-5.491 4.429-9.935 9.92-9.935z" transform="matrix(.965926 -.258819 .258819 .965926 -22.80969 106.234147)"/><path d="m394.194 128.974c-2.633.178-5.234 1.11-7.473 2.853l-26.348 20.528c-5.962 4.643-7.038 13.26-2.393 19.222 4.643 5.962 13.26 7.023 19.223 2.38l26.349-20.519c5.963-4.642 7.036-13.257 2.394-19.22-2.904-3.727-7.367-5.544-11.753-5.247zm.071.903c4.092-.278 8.241 1.42 10.952 4.903 4.34 5.572 3.336 13.594-2.236 17.933l-26.347 20.527c-5.572 4.339-13.594 3.335-17.933-2.237-4.34-5.571-3.335-13.592 2.236-17.932l26.347-20.514c2.089-1.627 4.527-2.514 6.981-2.68z" transform="matrix(.965926 -.258819 .258819 .965926 -26.556793 104.068826)"/><path d="m403.392 167.858c-5.986 0-10.851 4.866-10.851 10.853 0 5.986 4.865 10.837 10.851 10.837 5.987 0 10.837-4.852 10.837-10.837 0-5.987-4.85-10.853-10.837-10.853zm0 .918c5.491 0 9.92 4.444 9.92 9.935s-4.429 9.919-9.92 9.919-9.934-4.428-9.934-9.919c.001-5.491 4.444-9.935 9.934-9.935z" transform="matrix(.965926 -.258819 .258819 .965926 -32.506735 110.492905)"/><path d="m423.532 141.209c-5.986 0-10.852 4.865-10.852 10.852 0 5.986 4.867 10.851 10.852 10.851 5.987 0 10.851-4.865 10.851-10.851 0-5.987-4.864-10.852-10.851-10.852zm0 .918c5.491 0 9.934 4.443 9.934 9.933 0 5.491-4.443 9.934-9.934 9.934-5.49 0-9.934-4.443-9.934-9.934 0-5.49 4.444-9.933 9.934-9.933z" transform="matrix(.965926 -.258819 .258819 .965926 -24.924663 114.799314)"/><path d="m425.674 141.29c-2.632.178-5.247 1.111-7.482 2.853l-26.348 20.527c-5.963 4.644-7.038 13.26-2.394 19.223 4.643 5.961 13.26 7.022 19.224 2.379l26.347-20.514c5.962-4.643 7.038-13.26 2.394-19.223-2.903-3.725-7.354-5.541-11.741-5.245zm.058.903c4.091-.278 8.24 1.419 10.951 4.902 4.34 5.572 3.35 13.594-2.222 17.934l-26.348 20.527c-5.572 4.339-13.594 3.335-17.932-2.236-4.339-5.572-3.349-13.594 2.222-17.933l26.362-20.513c2.089-1.629 4.511-2.515 6.967-2.681z" transform="matrix(.965926 -.258819 .258819 .965926 -28.672383 112.633561)"/></g></svg>

<?xml version="1.0" encoding="utf-8"?>
<svg xmlns="http://www.w3.org/2000/svg">
  <path id="path5" d="M 239.79 120.791 C 207.093 120.791 180.573 147.296 180.573 179.993 C 180.573 212.691 207.092 239.209 239.789 239.209 C 252.697 239.209 264.634 235.084 274.365 228.071 L 274.379 228.057 L 275.598 227.125 L 275.598 227.111 L 275.612 227.111 C 277.57 225.547 280.047 224.617 282.75 224.617 L 304.597 224.617 L 335.403 224.617 L 357.249 224.617 C 359.954 224.617 362.43 225.547 364.388 227.111 L 364.403 227.111 L 364.403 227.125 L 365.621 228.057 L 365.635 228.071 C 375.365 235.084 387.304 239.209 400.211 239.209 C 432.909 239.209 459.427 212.69 459.427 179.993 C 459.427 147.296 432.907 120.791 400.211 120.791 L 335.848 120.791 L 323.936 120.791 L 323.478 120.791 L 323.478 121.25 L 323.478 121.852 L 316.654 121.852 L 316.654 121.25 L 316.654 120.791 L 316.196 120.791 L 304.155 120.791 L 239.791 120.791 L 239.79 120.791 Z M 239.79 121.709 L 304.153 121.709 L 315.735 121.709 L 315.735 122.311 L 315.735 122.77 L 316.194 122.77 L 323.934 122.77 L 324.393 122.77 L 324.393 122.311 L 324.393 121.709 L 335.846 121.709 L 400.209 121.709 C 432.411 121.709 458.507 147.793 458.507 179.993 C 458.507 212.195 432.409 238.291 400.209 238.291 C 387.502 238.291 375.756 234.225 366.177 227.325 L 366.163 227.325 L 364.959 226.394 C 362.844 224.705 360.163 223.699 357.247 223.699 L 335.401 223.699 L 304.596 223.699 L 282.749 223.699 C 279.832 223.699 277.152 224.705 275.036 226.394 L 273.832 227.325 L 273.819 227.325 C 264.245 234.229 252.501 238.293 239.79 238.293 C 207.589 238.293 181.492 212.197 181.492 179.995 C 181.492 147.794 207.59 121.71 239.791 121.71 L 239.79 121.709 Z" style="fill: rgb(30, 30, 30);" transform="matrix(0.965926, -0.258819, 0.258819, 0.965926, -35.683696, 88.95547)"/>
  <path id="circle9" d="M 242.752 168.703 C 225.197 168.703 210.958 182.944 210.958 200.498 C 210.958 218.052 225.198 232.293 242.752 232.293 C 260.307 232.293 274.561 218.052 274.561 200.498 C 274.561 182.943 260.307 168.703 242.752 168.703 Z M 242.752 169.621 C 259.811 169.621 273.644 183.439 273.644 200.498 C 273.644 217.555 259.811 231.374 242.752 231.374 C 225.693 231.374 211.875 217.555 211.875 200.498 C 211.875 183.439 225.694 169.621 242.752 169.621 Z" style="fill: rgb(30, 30, 30);" transform="matrix(0.965926, -0.258819, 0.258819, 0.965926, -43.620822, 69.662475)"/>
  <path id="path13" d="M 236.443 175.799 C 234.966 175.799 233.763 177.002 233.763 178.48 L 233.763 190.98 C 233.763 191.224 233.727 191.278 233.763 191.239 C 233.798 191.197 233.763 191.252 233.462 191.252 L 220.991 191.252 C 219.513 191.252 218.296 192.469 218.296 193.948 L 218.296 207.048 C 218.296 208.527 219.513 209.743 220.991 209.743 L 233.419 209.744 C 233.637 209.744 233.708 209.79 233.72 209.801 C 233.732 209.812 233.764 209.841 233.764 210.031 L 233.764 222.515 C 233.764 223.995 234.966 225.197 236.444 225.197 L 249.074 225.197 C 250.551 225.197 251.754 223.995 251.754 222.515 L 251.754 210.002 C 251.754 209.862 251.777 209.82 251.797 209.802 C 251.817 209.782 251.884 209.744 252.07 209.744 L 264.526 209.744 C 266.003 209.744 267.221 208.527 267.221 207.049 L 267.221 193.948 C 267.221 192.47 266.003 191.252 264.526 191.252 L 252.054 191.252 C 251.902 191.252 251.839 191.222 251.81 191.195 C 251.782 191.166 251.753 191.121 251.753 190.98 L 251.753 178.48 C 251.753 177.002 250.55 175.799 249.073 175.799 L 236.443 175.799 L 236.443 175.799 Z M 236.443 176.717 L 249.073 176.717 C 250.055 176.717 250.836 177.497 250.836 178.48 L 250.836 190.98 C 250.836 191.302 250.937 191.628 251.166 191.854 C 251.395 192.078 251.727 192.169 252.055 192.169 L 264.526 192.169 C 265.508 192.169 266.303 192.965 266.303 193.947 L 266.303 207.048 C 266.303 208.03 265.508 208.825 264.526 208.825 L 252.07 208.825 C 251.729 208.825 251.401 208.915 251.166 209.141 C 250.933 209.368 250.837 209.693 250.837 210.001 L 250.837 222.515 C 250.837 223.497 250.056 224.278 249.074 224.278 L 236.444 224.278 C 235.463 224.278 234.681 223.497 234.681 222.515 L 234.681 210.029 C 234.681 209.694 234.59 209.343 234.337 209.112 C 234.085 208.88 233.759 208.825 233.419 208.825 L 220.991 208.825 C 220.009 208.825 219.214 208.03 219.214 207.047 L 219.214 193.947 C 219.214 192.964 220.009 192.169 220.991 192.169 L 233.463 192.169 C 233.856 192.169 234.21 192.117 234.452 191.839 C 234.693 191.561 234.68 191.261 234.68 190.979 L 234.68 178.479 C 234.68 177.497 235.462 176.716 236.443 176.717 L 236.443 176.717 Z" style="fill: rgb(30, 30, 30);" transform="matrix(0.965926, -0.258819, 0.258819, 0.965926, -43.620893, 69.662302)"/>
  <path id="path25" d="M 303.978 185.223 C 302.904 185.128 301.785 185.452 300.896 186.198 L 288.899 196.261 C 287.12 197.752 286.877 200.419 288.367 202.196 C 289.858 203.974 292.525 204.202 294.303 202.712 L 306.316 192.648 C 308.094 191.158 308.321 188.492 306.832 186.713 C 306.087 185.824 305.054 185.317 303.979 185.223 L 303.978 185.223 Z M 303.892 186.141 C 304.731 186.215 305.543 186.603 306.129 187.302 C 307.301 188.7 307.125 190.775 305.727 191.946 L 293.715 202.009 C 292.316 203.18 290.242 203.006 289.07 201.609 C 287.898 200.21 288.087 198.135 289.486 196.964 L 301.499 186.9 C 302.199 186.314 303.054 186.066 303.893 186.14 L 303.892 186.141 Z" style="fill: rgb(30, 30, 30);" transform="matrix(0.965926, -0.25882, 0.25882, 0.965926, -40.187181, 83.651203)"/>
  <path id="path27" d="M 302.931 182.97 C 301.689 183.099 300.474 183.586 299.447 184.447 L 287.433 194.524 C 284.695 196.821 284.336 200.904 286.631 203.642 C 288.926 206.38 293.024 206.74 295.762 204.444 L 307.775 194.382 C 310.513 192.086 310.872 188.003 308.578 185.265 C 307.143 183.553 304.999 182.757 302.93 182.971 L 302.931 182.97 Z M 304.092 183.874 C 305.509 183.998 306.888 184.673 307.876 185.852 C 309.853 188.21 309.531 191.702 307.174 193.678 L 295.176 203.741 C 292.817 205.717 289.311 205.412 287.334 203.054 C 285.358 200.695 285.664 197.203 288.022 195.227 L 300.035 185.163 C 301.215 184.176 302.676 183.749 304.092 183.874 L 304.092 183.874 Z" style="fill: rgb(30, 30, 30);" transform="matrix(0.965926, -0.258819, 0.258819, 0.965926, -40.185796, 83.651174)"/>
  <path id="path29" d="M 332.974 177.454 C 331.898 177.359 330.795 177.683 329.906 178.429 L 317.893 188.491 C 316.118 189.979 315.881 192.633 317.362 194.411 L 317.362 194.426 C 318.852 196.204 321.519 196.432 323.297 194.941 L 335.31 184.879 C 337.088 183.388 337.316 180.722 335.826 178.944 C 335.081 178.056 334.048 177.548 332.974 177.454 L 332.974 177.454 Z M 332.888 178.371 C 333.726 178.445 334.538 178.833 335.124 179.532 C 336.296 180.93 336.121 183.005 334.722 184.177 L 322.709 194.24 C 321.312 195.411 319.237 195.237 318.065 193.839 C 316.893 192.44 317.082 190.365 318.481 189.194 L 330.494 179.131 C 331.193 178.545 332.049 178.297 332.888 178.371 L 332.888 178.371 Z" style="fill: rgb(30, 30, 30);" transform="matrix(0.965926, -0.258819, 0.258819, 0.965926, -37.188119, 90.891146)"/>
  <path id="path31" d="M 331.927 175.201 C 330.685 175.33 329.47 175.817 328.443 176.678 L 316.43 186.755 C 313.692 189.051 313.331 193.135 315.627 195.873 C 317.921 198.611 322.02 198.97 324.758 196.675 L 336.767 186.611 C 339.506 184.316 339.864 180.232 337.57 177.494 C 336.136 175.783 333.991 174.987 331.922 175.201 L 331.927 175.201 Z M 333.088 176.105 C 334.504 176.229 335.884 176.903 336.872 178.083 C 338.848 180.441 338.528 183.933 336.169 185.909 L 324.171 195.972 C 321.812 197.949 318.306 197.642 316.33 195.285 C 314.354 192.926 314.659 189.434 317.018 187.458 L 329.031 177.395 C 330.21 176.407 331.672 175.98 333.088 176.105 L 333.088 176.105 Z" style="fill: rgb(30, 30, 30);" transform="matrix(0.965926, -0.258819, 0.258819, 0.965926, -37.186904, 90.89067)"/>
  <path id="path33" d="M 397.699 106.391 C 368.621 106.391 345.034 129.98 345.034 159.055 C 345.034 188.134 368.622 211.708 397.699 211.708 C 414.207 211.708 428.941 204.118 438.596 192.227 L 438.639 192.17 L 438.668 192.113 L 438.769 191.869 L 438.998 191.324 L 438.41 191.237 C 438.081 191.192 437.822 190.924 437.822 190.578 C 437.822 190.199 438.118 189.904 438.496 189.904 C 438.812 189.904 439.078 190.108 439.156 190.391 L 439.428 191.409 L 439.987 190.521 L 440.245 190.091 L 440.259 190.062 C 446.607 181.364 450.352 170.646 450.352 159.055 C 450.352 129.978 426.777 106.39 397.7 106.39 L 397.7 106.391 Z M 397.699 107.308 C 426.281 107.308 449.433 130.477 449.433 159.055 C 449.433 170.419 445.764 180.911 439.556 189.446 C 439.27 189.177 438.916 188.987 438.495 188.987 C 437.621 188.987 436.904 189.705 436.904 190.578 C 436.904 191.143 437.258 191.558 437.706 191.84 C 428.216 203.403 413.826 210.791 397.698 210.791 C 369.116 210.791 345.949 187.639 345.949 159.056 C 345.949 130.475 369.117 107.309 397.698 107.309 L 397.699 107.308 Z" style="fill: rgb(30, 30, 30);" transform="matrix(0.965926, -0.258819, 0.258819, 0.965926, -27.613841, 108.349915)"/>
  <path id="circle35" d="M 371.914 155.544 C 365.928 155.544 361.063 160.409 361.063 166.395 C 361.063 172.381 365.928 177.247 371.914 177.247 C 377.901 177.247 382.766 172.381 382.766 166.395 C 382.766 160.409 377.901 155.544 371.914 155.544 Z M 371.914 156.46 C 377.405 156.46 381.848 160.905 381.848 166.395 C 381.848 171.886 377.405 176.329 371.914 176.329 C 366.424 176.329 361.98 171.886 361.98 166.395 C 361.98 160.905 366.424 156.46 371.914 156.46 L 371.914 156.46 Z" style="fill: rgb(30, 30, 30);" transform="matrix(0.965926, -0.258819, 0.258819, 0.965926, -30.393641, 101.92831)"/>
  <path id="circle37" d="M 392.052 128.894 C 386.065 128.894 381.215 133.759 381.215 139.746 C 381.215 145.732 386.066 150.597 392.052 150.597 C 398.038 150.597 402.904 145.732 402.904 139.746 C 402.904 133.759 398.038 128.894 392.052 128.894 Z M 392.052 129.811 C 397.542 129.811 401.986 134.255 401.986 139.746 C 401.986 145.236 397.542 149.679 392.052 149.679 C 386.562 149.679 382.132 145.236 382.132 139.746 C 382.132 134.255 386.561 129.811 392.052 129.811 Z" style="fill: rgb(30, 30, 30);" transform="matrix(0.965926, -0.258819, 0.258819, 0.965926, -22.80969, 106.234147)"/>
  <path id="path39" d="M 394.194 128.974 C 391.561 129.152 388.96 130.084 386.721 131.827 L 360.373 152.355 C 354.411 156.998 353.335 165.615 357.98 171.577 C 362.623 177.539 371.24 178.6 377.203 173.957 L 403.552 153.438 C 409.515 148.796 410.588 140.181 405.946 134.218 C 403.042 130.491 398.579 128.674 394.193 128.971 L 394.194 128.974 Z M 394.265 129.877 C 398.357 129.599 402.506 131.297 405.217 134.78 C 409.557 140.352 408.553 148.374 402.981 152.713 L 376.634 173.24 C 371.062 177.579 363.04 176.575 358.701 171.003 C 354.361 165.432 355.366 157.411 360.937 153.071 L 387.284 132.557 C 389.373 130.93 391.811 130.043 394.265 129.877 L 394.265 129.877 Z" style="fill: rgb(30, 30, 30);" transform="matrix(0.965926, -0.258819, 0.258819, 0.965926, -26.556793, 104.068826)"/>
  <path id="circle41" d="M 403.392 167.858 C 397.406 167.858 392.541 172.724 392.541 178.711 C 392.541 184.697 397.406 189.548 403.392 189.548 C 409.379 189.548 414.229 184.696 414.229 178.711 C 414.229 172.724 409.379 167.858 403.392 167.858 Z M 403.392 168.776 C 408.883 168.776 413.312 173.22 413.312 178.711 C 413.312 184.202 408.883 188.63 403.392 188.63 C 397.901 188.63 393.458 184.202 393.458 178.711 C 393.459 173.22 397.902 168.776 403.392 168.776 Z" style="fill: rgb(30, 30, 30);" transform="matrix(0.965926, -0.258819, 0.258819, 0.965926, -32.506735, 110.492905)"/>
  <path id="circle43" d="M 423.532 141.209 C 417.546 141.209 412.68 146.074 412.68 152.061 C 412.68 158.047 417.547 162.912 423.532 162.912 C 429.519 162.912 434.383 158.047 434.383 152.061 C 434.383 146.074 429.519 141.209 423.532 141.209 Z M 423.532 142.127 C 429.023 142.127 433.466 146.57 433.466 152.06 C 433.466 157.551 429.023 161.994 423.532 161.994 C 418.042 161.994 413.598 157.551 413.598 152.06 C 413.598 146.57 418.042 142.127 423.532 142.127 Z" style="fill: rgb(30, 30, 30);" transform="matrix(0.965926, -0.258819, 0.258819, 0.965926, -24.924663, 114.799314)"/>
  <path id="path45" d="M 425.674 141.29 C 423.042 141.468 420.427 142.401 418.192 144.143 L 391.844 164.67 C 385.881 169.314 384.806 177.93 389.45 183.893 C 394.093 189.854 402.71 190.915 408.674 186.272 L 435.021 165.758 C 440.983 161.115 442.059 152.498 437.415 146.535 C 434.512 142.81 430.061 140.994 425.674 141.29 L 425.674 141.29 Z M 425.732 142.193 C 429.823 141.915 433.972 143.612 436.683 147.095 C 441.023 152.667 440.033 160.689 434.461 165.029 L 408.113 185.556 C 402.541 189.895 394.519 188.891 390.181 183.32 C 385.842 177.748 386.832 169.726 392.403 165.387 L 418.765 144.874 C 420.854 143.245 423.276 142.359 425.732 142.193 L 425.732 142.193 Z" style="fill: rgb(30, 30, 30);" transform="matrix(0.965926, -0.258819, 0.258819, 0.965926, -28.672383, 112.633561)"/>
</svg>
